!! 00000] TT[WS
!!!OTL: Da xuanju
!!!ARE: Asia, China, Shanxi Zuoquan
!! Ethnic Group: Han
!! WII, 231 (2)
!!!SCT: J0746
!!!YEM: Copyright 1995, estate of Helmut Schaffrath.
**kern
*ICvox
*Ivox
!! Mixed meters:  2/4; 3/4
*M2/4
*k[f#]
*G:
{8dd
8dd
8cc
8dd
=1
*M3/4
8r
4ee
8b
4a
=2
*M2/4
8b
8a
8e
8g
=3
*M3/4
8r
4a
8e
4d}
=4
*M2/4
{8ee
8dd
8ee
8dd
=5
8b
8ee
8dd
8b
=6
8a
8g
8e
8g
=7
8r
4a
8ee
4dd}
==
!!!AGN: Xiaodiao. XÅshi, Xinminge
!!!ONB: ESAC (Essen Associative Code) Database: CHINA
!!!AMT: irregular
!!!AIN: vox
!!!EED: Helmut Schaffrath
!!!EEV: 1.0
*-
